X: 80
T:Waterfall Waltz
M:3/4
L:1/8
K:D
|:d2|"D"A2 AB AG|F2 A2 D2|"Em"G2 GA GF|"A"E4 d2|"D"A2 AB AG|"Bm"F2 A2 D2|"Em"G2 F2 "A7"E2|"D"D4:|
D2|"D"F3E FG|"A"A4 A2|"Bm"F3E FG|"F#m"A4 A2|"Bm"d3c de|"A"c3B A2|"D"d2 df "G"eg|"D"f4 e2|
"Bm"dc de d2|"F#m"c3B A2|"Bm"d2 F2 "E7"^G2|"A"A4 d2|"D"A2 AB AG|"Bm"F2 A2 D2|"Em"G2 F2 "A7"E2|"D"D4|

